site-flask-mustache/www/img/tommytofu/home-cabin-a.svg

<?xml version="1.0" encoding="UTF-8" standalone="no"?>
<svg
   xmlns:dc="http://purl.org/dc/elements/1.1/"
   xmlns:cc="http://creativecommons.org/ns#"
   xmlns:rdf="http://www.w3.org/1999/02/22-rdf-syntax-ns#"
   xmlns:svg="http://www.w3.org/2000/svg"
   xmlns="http://www.w3.org/2000/svg"
   width="32"
   height="32"
   viewBox="0 0 8.4666665 8.466667"
   version="1.1"
   id="svg8">
  <defs
     id="defs2" />
  <metadata
     id="metadata5">
    <rdf:RDF>
      <cc:Work
         rdf:about="">
        <dc:format>image/svg+xml</dc:format>
        <dc:type
           rdf:resource="http://purl.org/dc/dcmitype/StillImage" />
        <dc:title></dc:title>
      </cc:Work>
    </rdf:RDF>
  </metadata>
  <g
     id="layer1">
    <g
       transform="matrix(0.05003574,0,0,0.05003574,-0.00302608,-0.00302603)"
       id="g6505">
      <path
         d="m 321.30469,34.810547 -43.93555,86.111333 -60.47461,104.74414 -172.947264,54.23242 14.410156,40.64844 18.320312,-5.74415 V 468.5293 l -66.4375,115.07422 37.388672,21.58593 33.414063,-57.875 H 102.5 v 44.44336 h 22.85547 v -44.44336 h 10.1582 v 26.66602 h 22.85742 v -26.66602 h 103.88868 v 12.33008 h -12.79688 v 20.31641 h -10.29687 v 22.85742 h 164.27734 v -22.85742 h -10.29688 v -20.31641 h -12.79687 v -12.33008 h 95.4707 v 26.66602 h 22.85547 v -26.66602 h 12.69727 v 44.44336 h 22.85742 v -44.44336 h 24.72656 l 33.41406,57.875 37.38868,-21.58593 L 393.02344,173.5625 v -47.70312 h -0.43946 c 2.43757,0 4.4004,-1.96284 4.4004,-4.4004 v -2.63867 c 0,-2.43755 -1.96283,-4.40039 -4.4004,-4.40039 h -14.08007 c -2.43755,0 -4.40039,1.96284 -4.40039,4.40039 v 2.63867 c 0,2.43756 1.96284,4.40038 4.40039,4.4004 h -0.43946 v 20.19726 z M 302.4082,163.90039 h 16.40625 v 16.88477 h -26.15429 z m 21.38672,0 h 13.79688 l 9.74804,16.88477 h -23.54492 z m -34.00195,22.05664 h 29.02148 v 16.88477 h -29.02148 z m 34.00195,0 h 26.53125 l 2.49024,4.3125 V 202.8418 H 323.79492 Z M 90.021484,323.24805 h 18.468746 v 31.74609 H 90.021484 Z m 24.124996,0 h 18.47071 v 31.74609 H 114.14648 Z M 90.021484,360.44336 H 108.49023 V 392.1875 H 90.021484 Z m 24.124996,0 h 18.47071 v 11.19726 l -11.86328,20.54688 h -6.60743 z m 175.39063,35.76562 h 63.53516 v 109.20313 h -63.53516 z m -120.00977,7.26368 h 93.41602 v 94.67773 H 149.29297 v -59.62891 z m 217.32813,0.9082 h 89.57812 l 21.89258,37.91797 v 54.94336 h -111.4707 z"
         style="fill:currentColor;stroke:none;stroke-width:4.33818;stroke-linecap:round;stroke-linejoin:round;stroke-miterlimit:4;stroke-dasharray:none;stroke-dashoffset:0"
         id="rect1689"
         transform="scale(0.26458334)" />
      <circle
         r="1.0455936"
         cy="119.06454"
         cx="91.858269"
         id="path1833"
         style="fill:currentColor;stroke:none;stroke-width:0.462495;stroke-linecap:round;stroke-linejoin:round;stroke-miterlimit:4;stroke-dasharray:none;stroke-dashoffset:0" />
    </g>
  </g>
</svg>

<?xml version="1.0" encoding="UTF-8" standalone="no"?>
<svg
   xmlns:dc="http://purl.org/dc/elements/1.1/"
   xmlns:cc="http://creativecommons.org/ns#"
   xmlns:rdf="http://www.w3.org/1999/02/22-rdf-syntax-ns#"
   xmlns:svg="http://www.w3.org/2000/svg"
   xmlns="http://www.w3.org/2000/svg"
   id="svg8"
   version="1.1"
   viewBox="0 0 169.33333 169.33334"
   height="32"
   width="32">
  <defs
     id="defs2" />
  <metadata
     id="metadata5">
    <rdf:RDF>
      <cc:Work
         rdf:about="">
        <dc:format>image/svg+xml</dc:format>
        <dc:type
           rdf:resource="http://purl.org/dc/dcmitype/StillImage" />
        <dc:title></dc:title>
      </cc:Work>
    </rdf:RDF>
  </metadata>
  <g
     id="layer1">
    <path
       transform="scale(0.26458334)"
       d="M 321.30469 34.810547 L 277.36914 120.92188 L 216.89453 225.66602 L 43.947266 279.89844 L 58.357422 320.54688 L 76.677734 314.80273 L 76.677734 468.5293 L 10.240234 583.60352 L 47.628906 605.18945 L 81.042969 547.31445 L 102.5 547.31445 L 102.5 591.75781 L 125.35547 591.75781 L 125.35547 547.31445 L 135.51367 547.31445 L 135.51367 573.98047 L 158.37109 573.98047 L 158.37109 547.31445 L 262.25977 547.31445 L 262.25977 559.64453 L 249.46289 559.64453 L 249.46289 579.96094 L 239.16602 579.96094 L 239.16602 602.81836 L 403.44336 602.81836 L 403.44336 579.96094 L 393.14648 579.96094 L 393.14648 559.64453 L 380.34961 559.64453 L 380.34961 547.31445 L 475.82031 547.31445 L 475.82031 573.98047 L 498.67578 573.98047 L 498.67578 547.31445 L 511.37305 547.31445 L 511.37305 591.75781 L 534.23047 591.75781 L 534.23047 547.31445 L 558.95703 547.31445 L 592.37109 605.18945 L 629.75977 583.60352 L 393.02344 173.5625 L 393.02344 125.85938 L 392.58398 125.85938 C 395.02155 125.85938 396.98438 123.89654 396.98438 121.45898 L 396.98438 118.82031 C 396.98438 116.38276 395.02155 114.41992 392.58398 114.41992 L 378.50391 114.41992 C 376.06636 114.41992 374.10352 116.38276 374.10352 118.82031 L 374.10352 121.45898 C 374.10352 123.89654 376.06636 125.85936 378.50391 125.85938 L 378.06445 125.85938 L 378.06445 146.05664 L 321.30469 34.810547 z M 302.4082 163.90039 L 318.81445 163.90039 L 318.81445 180.78516 L 292.66016 180.78516 L 302.4082 163.90039 z M 323.79492 163.90039 L 337.5918 163.90039 L 347.33984 180.78516 L 323.79492 180.78516 L 323.79492 163.90039 z M 289.79297 185.95703 L 318.81445 185.95703 L 318.81445 202.8418 L 289.79297 202.8418 L 289.79297 185.95703 z M 323.79492 185.95703 L 350.32617 185.95703 L 352.81641 190.26953 L 352.81641 202.8418 L 323.79492 202.8418 L 323.79492 185.95703 z M 90.021484 323.24805 L 108.49023 323.24805 L 108.49023 354.99414 L 90.021484 354.99414 L 90.021484 323.24805 z M 114.14648 323.24805 L 132.61719 323.24805 L 132.61719 354.99414 L 114.14648 354.99414 L 114.14648 323.24805 z M 90.021484 360.44336 L 108.49023 360.44336 L 108.49023 392.1875 L 90.021484 392.1875 L 90.021484 360.44336 z M 114.14648 360.44336 L 132.61719 360.44336 L 132.61719 371.64062 L 120.75391 392.1875 L 114.14648 392.1875 L 114.14648 360.44336 z M 289.53711 396.20898 L 353.07227 396.20898 L 353.07227 505.41211 L 289.53711 505.41211 L 289.53711 396.20898 z M 169.52734 403.47266 L 262.94336 403.47266 L 262.94336 498.15039 L 149.29297 498.15039 L 149.29297 438.52148 L 169.52734 403.47266 z M 386.85547 404.38086 L 476.43359 404.38086 L 498.32617 442.29883 L 498.32617 497.24219 L 386.85547 497.24219 L 386.85547 404.38086 z "
       style="fill:currentColor;stroke:none;stroke-width:4.33818;stroke-linecap:round;stroke-linejoin:round;stroke-miterlimit:4;stroke-dasharray:none;stroke-dashoffset:0"
       id="rect1689" />
    <circle
       r="1.0455936"
       cy="119.06454"
       cx="91.858269"
       id="path1833"
       style="fill:currentColor;stroke:none;stroke-width:0.462495;stroke-linecap:round;stroke-linejoin:round;stroke-miterlimit:4;stroke-dasharray:none;stroke-dashoffset:0" />
  </g>
</svg>
